ir/intersect.svg

<svg stroke-width="1.5" viewBox="0 0 24 24" fill="none" xmlns="http://www.w3.org/2000/svg" height="1em" width="1em">
  <path d="M21 13.5V16.5M13.5 21H16.5" stroke="currentColor" stroke-linecap="round" stroke-linejoin="round"/>
  <path d="M16.5 9H9.6C9.26863 9 9 9.26863 9 9.6V16.5" stroke="currentColor" stroke-linecap="round" stroke-linejoin="round"/>
  <path d="M10.5 21H9.6C9.26863 21 9 20.7314 9 20.4V19.5" stroke="currentColor" stroke-linecap="round" stroke-linejoin="round"/>
  <path d="M21 19.5V20.4C21 20.7314 20.7314 21 20.4 21H19.5" stroke="currentColor" stroke-linecap="round" stroke-linejoin="round"/>
  <path d="M19.5 9H20.4C20.7314 9 21 9.26863 21 9.6V10.5" stroke="currentColor" stroke-linecap="round" stroke-linejoin="round"/>
  <path d="M3 10.5V7.5M7.5 3H10.5" stroke="currentColor" stroke-linecap="round" stroke-linejoin="round"/>
  <path d="M7.5 15H14.4C14.7314 15 15 14.7314 15 14.4V7.5" stroke="currentColor" stroke-linecap="round" stroke-linejoin="round"/>
  <path d="M4.5 15H3.6C3.26863 15 3 14.7314 3 14.4V13.5" stroke="currentColor" stroke-linecap="round" stroke-linejoin="round"/>
  <path d="M3 4.5V3.6C3 3.26863 3.26863 3 3.6 3H4.5" stroke="currentColor" stroke-linecap="round" stroke-linejoin="round"/>
  <path d="M13.5 3H14.4C14.7314 3 15 3.26863 15 3.6V4.5" stroke="currentColor" stroke-linecap="round" stroke-linejoin="round"/>
</svg>

<svg stroke-width="1.5" viewBox="0 0 24 24" fill="none" xmlns="http://www.w3.org/2000/svg" height="1em" width="1em">
  <path d="M21 13.5v3M13.5 21h3m0-12H9.6a.6.6 0 0 0-.6.6v6.9m1.5 4.5h-.9a.6.6 0 0 1-.6-.6v-.9m12 0v.9a.6.6 0 0 1-.6.6h-.9m0-12h.9a.6.6 0 0 1 .6.6v.9m-18 0v-3M7.5 3h3" stroke="currentColor" stroke-linecap="round" stroke-linejoin="round"/>
  <path d="M7.5 15h6.9a.6.6 0 0 0 .6-.6V7.5M4.5 15h-.9a.6.6 0 0 1-.6-.6v-.9m0-9v-.9a.6.6 0 0 1 .6-.6h.9m9 0h.9a.6.6 0 0 1 .6.6v.9" stroke="currentColor" stroke-linecap="round" stroke-linejoin="round"/>
</svg>
